;FLAVOR:RepRap
;TIME:480
;Filament used: 0.414395m
;Layer height: 0.175
;MINX:48.293
;MINY:48.289
;MINZ:0.263
;MAXX:71.705
;MAXY:71.71
;MAXZ:7.963
;Generated with Cura_SteamEngine 4.5.0
T0
M190 S65
M104 S205
M109 S205
M82 ;absolute extrusion mode
G21;(metric values)
G90;(absolute positioning)
M82;(set extruder to absolute mode)
M107;(start with the fan off)
G28;(Home the printer)
G92 E0;(Reset the extruder to 0)
G0 Z5 E5 F500;(Move up and prime the nozzle)
G0 X-1 Z0;(Move outside the printable area)
G1 Y60 E8 F500;(Draw a priming/wiping line to the rear)
G1 X-1;(Move a little closer to the print area)
G1 Y10 E16 F500;(draw more priming/wiping)
G1 E15 F250;(Small retract)
G92 E0;(Zero the extruder)
M83 ;relative extrusion mode
G1 F2400 E-2.5
;LAYER_COUNT:45
;LAYER:0
M107
G0 F4320 X51.743 Y51.691 Z0.263
;TYPE:SKIRT
G1 F2400 E2.5
G1 F1800 X52.45 Y51.055 E0.03639
G1 X53.062 Y50.572 E0.02984
G1 X53.811 Y50.065 E0.03461
G1 X54.549 Y49.635 E0.03269
G1 X55.257 Y49.292 E0.03011
G1 X56.036 Y48.98 E0.03211
G1 X56.804 Y48.733 E0.03087
G1 X57.478 Y48.569 E0.02655
G1 X58.339 Y48.412 E0.03349
G1 X59.232 Y48.314 E0.03438
G1 X60.018 Y48.289 E0.0301
G1 X60.849 Y48.32 E0.03182
G1 X61.642 Y48.404 E0.03052
G1 X62.328 Y48.527 E0.02667
G1 X63.114 Y48.716 E0.03094
G1 X63.91 Y48.966 E0.03193
G1 X64.683 Y49.272 E0.03182
G1 X65.382 Y49.604 E0.02961
G1 X66.123 Y50.022 E0.03256
G1 X66.879 Y50.522 E0.03469
G1 X67.299 Y50.837 E0.02009
G1 X68.036 Y51.488 E0.03763
G1 X68.612 Y52.071 E0.03136
G1 X69.153 Y52.701 E0.03178
G1 X69.704 Y53.443 E0.03537
G1 X70.001 Y53.9 E0.02086
G1 X70.468 Y54.757 E0.03735
G1 X70.844 Y55.574 E0.03442
G1 X71.112 Y56.301 E0.02965
G1 X71.312 Y56.989 E0.02742
G1 X71.489 Y57.754 E0.03005
G1 X71.621 Y58.6 E0.03277
G1 X71.692 Y59.43 E0.03188
G1 X71.705 Y60.208 E0.02978
G1 X71.659 Y61.042 E0.03197
G1 X71.56 Y61.847 E0.03104
G1 X71.376 Y62.782 E0.03647
G1 X71.248 Y63.277 E0.01957
G1 X70.943 Y64.161 E0.03579
G1 X70.611 Y64.942 E0.03248
G1 X70.243 Y65.666 E0.03108
G1 X69.825 Y66.365 E0.03117
G1 X69.367 Y67.022 E0.03065
G1 X68.848 Y67.665 E0.03162
G1 X68.296 Y68.259 E0.03103
G1 X67.695 Y68.822 E0.03152
G1 X67.106 Y69.304 E0.02913
G1 X66.418 Y69.79 E0.03224
G1 X65.709 Y70.221 E0.03175
G1 X65.006 Y70.582 E0.03024
G1 X64.099 Y70.971 E0.03777
G1 X63.519 Y71.173 E0.0235
G1 X62.728 Y71.386 E0.03135
G1 X61.756 Y71.578 E0.03792
G1 X61.243 Y71.649 E0.01982
G1 X60.161 Y71.71 E0.04147
G1 X59.538 Y71.704 E0.02384
G1 X58.538 Y71.62 E0.0384
G1 X57.769 Y71.497 E0.0298
G1 X56.97 Y71.312 E0.03139
G1 X56.196 Y71.076 E0.03097
G1 X55.58 Y70.839 E0.02526
G1 X54.778 Y70.476 E0.03369
G1 X54.052 Y70.082 E0.03161
G1 X53.412 Y69.675 E0.02903
G1 X52.729 Y69.173 E0.03244
G1 X52.104 Y68.643 E0.03136
G1 X51.524 Y68.075 E0.03107
G1 X50.985 Y67.469 E0.03104
G1 X50.403 Y66.712 E0.03654
G1 X50.068 Y66.209 E0.02313
G1 X49.597 Y65.377 E0.03659
G1 X49.243 Y64.629 E0.03167
G1 X48.986 Y63.964 E0.02728
G1 X48.746 Y63.221 E0.02988
G1 X48.545 Y62.412 E0.0319
G1 X48.401 Y61.575 E0.0325
G1 X48.309 Y60.656 E0.03535
G1 X48.293 Y59.802 E0.03269
G1 X48.321 Y59.118 E0.0262
G1 X48.376 Y58.602 E0.01986
G1 X48.475 Y57.955 E0.02505
G1 X48.642 Y57.169 E0.03075
G1 X48.863 Y56.398 E0.03069
G1 X49.149 Y55.611 E0.03205
G1 X49.472 Y54.883 E0.03048
G1 X49.93 Y54.024 E0.03725
G1 X50.22 Y53.553 E0.02117
G1 X50.749 Y52.826 E0.03441
G1 X51.273 Y52.201 E0.03121
G0 F1620 X51.386 Y52.067
G0 X51.743 Y51.691
G0 F4320 X52.176 Y51.764
G1 F1800 X52.682 Y51.317 E0.02584
G1 X53.275 Y50.85 E0.02889
G1 X54.004 Y50.357 E0.03368
G1 X54.722 Y49.939 E0.0318
G1 X55.387 Y49.617 E0.02828
G1 X56.166 Y49.305 E0.03211
G1 X56.887 Y49.073 E0.02899
G1 X57.561 Y48.909 E0.02655
G1 X58.397 Y48.757 E0.03252
G1 X59.266 Y48.663 E0.03345
G1 X60.004 Y48.639 E0.02826
G1 X60.835 Y48.67 E0.03182
G1 X61.58 Y48.749 E0.02867
G1 X62.266 Y48.872 E0.02667
G1 X63.028 Y49.055 E0.02999
G1 X63.801 Y49.299 E0.03102
G1 X64.55 Y49.595 E0.03082
G1 X65.228 Y49.918 E0.02874
G1 X65.947 Y50.325 E0.03162
G1 X66.682 Y50.811 E0.03372
G1 X67.085 Y51.114 E0.0193
G1 X67.802 Y51.747 E0.0366
G1 X68.36 Y52.314 E0.03044
G1 X68.885 Y52.926 E0.03086
G1 X69.421 Y53.648 E0.03441
G1 X69.703 Y54.084 E0.01987
G1 X70.159 Y54.922 E0.03651
G1 X70.524 Y55.717 E0.03348
G1 X70.776 Y56.398 E0.02779
G1 X70.976 Y57.086 E0.02742
G1 X71.147 Y57.828 E0.02914
G1 X71.275 Y58.65 E0.03184
G1 X71.343 Y59.455 E0.03092
G1 X71.355 Y60.209 E0.02886
G1 X71.31 Y61.018 E0.03101
G1 X71.213 Y61.8 E0.03016
G1 X71.033 Y62.711 E0.03554
G1 X70.823 Y63.458 E0.0297
G1 X70.613 Y64.042 E0.02375
G1 X70.29 Y64.802 E0.0316
G1 X69.933 Y65.504 E0.03014
G1 X69.527 Y66.182 E0.03024
G1 X69.083 Y66.818 E0.02968
G1 X68.578 Y67.442 E0.03072
G1 X68.042 Y68.018 E0.03011
G1 X67.459 Y68.563 E0.03054
G1 X66.888 Y69.03 E0.02823
G1 X66.219 Y69.502 E0.03133
G1 X65.531 Y69.919 E0.03079
G1 X64.85 Y70.269 E0.0293
G1 X63.964 Y70.648 E0.03688
G1 X63.412 Y70.839 E0.02235
G1 X62.64 Y71.048 E0.03061
G1 X61.692 Y71.234 E0.03697
G1 X60.92 Y71.325 E0.02975
G1 X60.145 Y71.361 E0.02969
G1 X59.548 Y71.354 E0.02285
G1 X58.57 Y71.272 E0.03756
G1 X57.848 Y71.156 E0.02799
G1 X57.049 Y70.971 E0.03139
G1 X56.322 Y70.75 E0.02908
G1 X55.706 Y70.513 E0.02526
G1 X54.926 Y70.159 E0.03278
G1 X54.223 Y69.776 E0.03064
G1 X53.603 Y69.382 E0.02811
G1 X52.94 Y68.894 E0.03151
G1 X52.335 Y68.379 E0.03041
G1 X51.772 Y67.828 E0.03015
G1 X51.249 Y67.239 E0.03014
G1 X50.683 Y66.502 E0.03556
G1 X50.363 Y66.021 E0.02211
G1 X49.903 Y65.207 E0.03578
G1 X49.57 Y64.503 E0.0298
G1 X49.313 Y63.838 E0.02728
G1 X49.081 Y63.118 E0.02895
G1 X48.886 Y62.332 E0.03099
G1 X48.747 Y61.52 E0.03153
G1 X48.657 Y60.625 E0.03442
G1 X48.643 Y59.803 E0.03146
G1 X48.669 Y59.15 E0.02501
G1 X48.821 Y58.008 E0.04409
G1 X48.984 Y57.247 E0.02978
G1 X49.198 Y56.498 E0.02981
G1 X49.476 Y55.735 E0.03108
G1 X49.79 Y55.029 E0.02957
G1 X50.237 Y54.192 E0.03631
G1 X50.515 Y53.742 E0.02024
G1 X51.03 Y53.035 E0.03347
G1 X51.652 Y52.295 E0.037
G1 X51.689 Y52.257 E0.00203
G0 F1620 X52.176 Y51.764
G0 F4320 X52.407 Y52.026
G1 F1800 X52.913 Y51.579 E0.02584
G1 X53.488 Y51.128 E0.02797
G1 X54.197 Y50.649 E0.03275
G1 X54.895 Y50.244 E0.03088
G1 X55.517 Y49.942 E0.02646
G1 X56.296 Y49.63 E0.03211
G1 X56.97 Y49.413 E0.0271
G1 X57.644 Y49.249 E0.02655
G1 X58.456 Y49.102 E0.03158
G1 X59.301 Y49.011 E0.03253
G1 X59.991 Y48.988 E0.02642
G1 X60.822 Y49.019 E0.03182
G1 X61.518 Y49.093 E0.02679
G1 X62.204 Y49.216 E0.02667
G1 X62.942 Y49.395 E0.02906
G1 X63.692 Y49.632 E0.0301
G1 X64.417 Y49.919 E0.02984
G1 X65.074 Y50.233 E0.02787
G1 X65.771 Y50.627 E0.03064
G1 X66.486 Y51.101 E0.03283
G1 X67.074 Y51.561 E0.02857
G1 X67.567 Y52.007 E0.02544
G1 X68.108 Y52.557 E0.02952
G1 X68.617 Y53.151 E0.02994
G1 X69.138 Y53.854 E0.03349
G1 X69.521 Y54.468 E0.02769
G1 X69.851 Y55.087 E0.02685
G1 X70.204 Y55.859 E0.03249
G1 X70.44 Y56.496 E0.026
G1 X70.64 Y57.184 E0.02742
G1 X70.805 Y57.903 E0.02823
G1 X70.928 Y58.7 E0.03086
G1 X70.994 Y59.481 E0.03
G1 X71.005 Y60.211 E0.02794
G1 X70.961 Y60.994 E0.03001
G1 X70.866 Y61.754 E0.02931
G1 X70.691 Y62.639 E0.03452
G1 X70.494 Y63.34 E0.02787
G1 X70.284 Y63.924 E0.02375
G1 X69.97 Y64.661 E0.03066
G1 X69.623 Y65.341 E0.02922
G1 X69.229 Y65.998 E0.02932
G1 X68.798 Y66.614 E0.02877
G1 X68.309 Y67.219 E0.02977
G1 X67.789 Y67.777 E0.02919
G1 X67.223 Y68.305 E0.02962
G1 X66.669 Y68.756 E0.02734
G1 X66.021 Y69.214 E0.03037
G1 X65.353 Y69.618 E0.02988
G1 X64.694 Y69.956 E0.02834
G1 X63.829 Y70.325 E0.03599
G1 X63.305 Y70.506 E0.02122
G1 X62.551 Y70.709 E0.02988
G1 X61.628 Y70.89 E0.036
G1 X60.904 Y70.975 E0.0279
G1 X60.129 Y71.011 E0.02969
G1 X59.559 Y71.004 E0.02182
G1 X58.603 Y70.923 E0.03672
G1 X57.927 Y70.815 E0.0262
G1 X57.128 Y70.63 E0.03139
G1 X56.447 Y70.423 E0.02724
G1 X55.831 Y70.186 E0.02526
G1 X55.074 Y69.842 E0.03182
G1 X54.394 Y69.471 E0.02964
G1 X53.795 Y69.089 E0.02719
G1 X53.15 Y68.614 E0.03066
G1 X52.565 Y68.115 E0.02943
G1 X52.02 Y67.581 E0.0292
G1 X51.514 Y67.01 E0.0292
G1 X50.963 Y66.292 E0.03464
G1 X50.659 Y65.833 E0.02107
G1 X50.209 Y65.037 E0.03499
G1 X49.896 Y64.377 E0.02795
G1 X49.639 Y63.712 E0.02728
G1 X49.415 Y63.015 E0.02802
G1 X49.227 Y62.251 E0.03011
G1 X49.092 Y61.465 E0.03052
G1 X49.006 Y60.594 E0.0335
G1 X48.993 Y59.803 E0.03028
G1 X49.018 Y59.181 E0.02382
G1 X49.167 Y58.061 E0.04324
G1 X49.325 Y57.324 E0.02885
G1 X49.533 Y56.598 E0.0289
G1 X49.804 Y55.859 E0.03012
G1 X50.108 Y55.174 E0.02868
G1 X50.544 Y54.361 E0.03531
G1 X50.81 Y53.931 E0.01935
G1 X51.311 Y53.244 E0.03254
G1 X51.918 Y52.522 E0.0361
G1 X51.92 Y52.52 E0.00011
G0 F1620 X52.407 Y52.026
G0 F4320 X52.639 Y52.289
G1 F1800 X53.145 Y51.842 E0.02584
G1 X53.701 Y51.406 E0.02704
G1 X54.39 Y50.941 E0.03181
G1 X55.068 Y50.548 E0.02999
G1 X55.648 Y50.267 E0.02466
G1 X56.427 Y49.955 E0.03211
G1 X57.052 Y49.753 E0.02514
G1 X57.726 Y49.589 E0.02655
G1 X58.514 Y49.448 E0.03064
G1 X59.335 Y49.359 E0.0316
G1 X59.978 Y49.338 E0.02462
G1 X60.809 Y49.369 E0.03182
G1 X61.456 Y49.438 E0.0249
G1 X62.142 Y49.561 E0.02667
G1 X62.856 Y49.734 E0.02812
G1 X63.584 Y49.964 E0.02922
G1 X64.284 Y50.243 E0.02884
G1 X64.92 Y50.547 E0.02698
G1 X65.596 Y50.93 E0.02973
G1 X66.289 Y51.391 E0.03185
G1 X66.839 Y51.821 E0.02672
G1 X67.332 Y52.267 E0.02544
G1 X67.856 Y52.799 E0.02858
G1 X68.348 Y53.376 E0.02902
G1 X68.855 Y54.06 E0.03258
G1 X69.212 Y54.632 E0.0258
G1 X69.542 Y55.251 E0.02685
G1 X69.884 Y56.002 E0.03158
G1 X70.104 Y56.594 E0.02417
G1 X70.304 Y57.282 E0.02742
G1 X70.463 Y57.977 E0.02728
G1 X70.582 Y58.749 E0.02989
G1 X70.645 Y59.506 E0.02907
G1 X70.655 Y60.212 E0.02702
G1 X70.612 Y60.971 E0.02909
G1 X70.519 Y61.707 E0.02839
G1 X70.348 Y62.568 E0.03359
G1 X70.165 Y63.221 E0.02595
G1 X69.955 Y63.805 E0.02375
G1 X69.649 Y64.521 E0.0298
G1 X69.313 Y65.179 E0.02827
G1 X68.931 Y65.815 E0.02839
G1 X68.513 Y66.41 E0.02783
G1 X68.039 Y66.996 E0.02884
G1 X67.535 Y67.535 E0.02824
G1 X66.987 Y68.046 E0.02868
G1 X66.451 Y68.483 E0.02647
G1 X65.822 Y68.926 E0.02944
G1 X65.175 Y69.316 E0.02891
G1 X64.538 Y69.642 E0.02738
G1 X63.695 Y70.002 E0.03508
G1 X63.198 Y70.173 E0.02011
G1 X62.462 Y70.37 E0.02916
G1 X61.564 Y70.546 E0.03502
G1 X60.887 Y70.626 E0.02609
G1 X60.112 Y70.662 E0.02969
G1 X59.569 Y70.655 E0.02078
G1 X58.635 Y70.575 E0.03588
G1 X58.006 Y70.474 E0.02438
G1 X57.207 Y70.289 E0.03139
G1 X56.573 Y70.096 E0.02536
G1 X55.957 Y69.859 E0.02526
G1 X55.222 Y69.525 E0.0309
G1 X54.566 Y69.166 E0.02862
G1 X53.986 Y68.796 E0.02633
G1 X53.36 Y68.334 E0.02977
G1 X52.795 Y67.852 E0.02842
G1 X52.268 Y67.334 E0.02828
G1 X51.778 Y66.781 E0.02828
G1 X51.243 Y66.081 E0.03372
G1 X50.954 Y65.645 E0.02002
G1 X50.515 Y64.868 E0.03415
G1 X50.222 Y64.251 E0.02614
G1 X49.965 Y63.586 E0.02728
G1 X49.75 Y62.912 E0.02707
G1 X49.567 Y62.171 E0.02921
G1 X49.438 Y61.411 E0.0295
G1 X49.355 Y60.562 E0.03265
G1 X49.343 Y59.804 E0.02901
G1 X49.366 Y59.213 E0.02263
G1 X49.513 Y58.114 E0.04243
G1 X49.666 Y57.402 E0.02787
G1 X49.869 Y56.699 E0.028
G1 X50.131 Y55.983 E0.02918
G1 X50.427 Y55.32 E0.02779
G1 X50.851 Y54.529 E0.03435
G1 X51.231 Y53.937 E0.02692
G1 X51.591 Y53.454 E0.02305
G1 X52.154 Y52.785 E0.03346
G0 F1620 X52.184 Y52.75
G0 X52.639 Y52.289
G1 F2400 E-2.5
;MESH:Body1.stl
G0 F4320 X53.091 Y55.652
G0 X53.97 Y56.241
G0 X54.375 Y59.753
;TYPE:WALL-INNER
G1 F2400 E2.5
G1 F1800 X54.396 Y60.207 E0.01739
G1 X54.414 Y60.56 E0.01353
G1 X54.425 Y60.775 E0.00824
G1 X54.467 Y60.974 E0.00778
G1 X54.544 Y61.336 E0.01416
G1 X54.595 Y61.573 E0.00928
G1 X54.655 Y61.737 E0.00668
G1 X54.787 Y62.095 E0.0146
G1 X54.871 Y62.324 E0.00933
G1 X54.932 Y62.437 E0.00491
G1 X55.112 Y62.767 E0.01439
G1 X55.252 Y63.025 E0.01123
G1 X55.331 Y63.131 E0.00506
G1 X55.552 Y63.427 E0.01414
G1 X55.729 Y63.664 E0.01132
G1 X55.797 Y63.733 E0.00371
G1 X56.09 Y64.031 E0.01599
G1 X56.286 Y64.229 E0.01066
G1 X56.349 Y64.277 E0.00303
G1 X56.686 Y64.534 E0.01622
G1 X56.921 Y64.714 E0.01133
G1 X56.959 Y64.735 E0.00166
G1 X57.342 Y64.946 E0.01673
G1 X57.62 Y65.1 E0.01216
G1 X57.65 Y65.111 E0.00122
G1 X58.057 Y65.268 E0.01669
G1 X58.363 Y65.387 E0.01256
G1 X58.377 Y65.39 E0.00055
G1 X58.815 Y65.489 E0.01719
G1 X59.141 Y65.563 E0.01279
G1 X59.543 Y65.596 E0.01544
G1 X59.935 Y65.629 E0.01505
G1 X59.946 Y65.629 E0.00042
G1 X60.364 Y65.604 E0.01603
G1 X60.731 Y65.582 E0.01407
G1 X61.116 Y65.503 E0.01504
G1 X61.51 Y65.422 E0.01539
G1 X61.843 Y65.304 E0.01352
G1 X62.261 Y65.154 E0.017
G1 X62.576 Y64.989 E0.01361
G1 X62.944 Y64.796 E0.0159
G1 X62.968 Y64.783 E0.00104
G1 X63.245 Y64.583 E0.01308
G1 X63.564 Y64.353 E0.01505
G1 X63.613 Y64.317 E0.00233
G1 X63.845 Y64.094 E0.01232
G1 X64.168 Y63.782 E0.01719
G1 X64.186 Y63.765 E0.00095
G1 X64.359 Y63.542 E0.0108
G1 X64.649 Y63.17 E0.01805
G1 X64.678 Y63.133 E0.0018
G1 X64.801 Y62.917 E0.00951
G1 X65.05 Y62.48 E0.01925
G1 X65.072 Y62.441 E0.00171
G1 X65.171 Y62.192 E0.01025
G1 X65.316 Y61.831 E0.01489
G1 X65.368 Y61.702 E0.00532
G1 X65.432 Y61.43 E0.01069
G1 X65.516 Y61.077 E0.01389
G1 X65.552 Y60.925 E0.00598
G1 X65.574 Y60.687 E0.00915
G1 X65.615 Y60.263 E0.0163
G1 X65.628 Y60.133 E0.005
G1 X65.62 Y59.952 E0.00693
G1 X65.596 Y59.471 E0.01843
G1 X65.589 Y59.339 E0.00506
G1 X65.555 Y59.154 E0.0072
G1 X65.468 Y58.692 E0.01799
G1 X65.441 Y58.553 E0.00542
G1 X65.386 Y58.392 E0.00651
G1 X65.245 Y57.984 E0.01652
G1 X65.181 Y57.801 E0.00742
G1 X65.108 Y57.659 E0.00611
G1 X64.915 Y57.281 E0.01624
G1 X64.818 Y57.091 E0.00816
G1 X64.721 Y56.953 E0.00646
G1 X64.489 Y56.624 E0.01541
G1 X64.36 Y56.44 E0.0086
G1 X64.272 Y56.346 E0.00493
G1 X64.006 Y56.062 E0.01489
G1 X63.815 Y55.858 E0.01069
G1 X63.712 Y55.776 E0.00504
G1 X63.392 Y55.523 E0.01561
G1 X63.189 Y55.362 E0.00992
G1 X63.097 Y55.308 E0.00408
G1 X62.767 Y55.114 E0.01465
G1 X62.503 Y54.958 E0.01174
G1 X62.407 Y54.919 E0.00397
G1 X62.057 Y54.776 E0.01447
G1 X61.765 Y54.656 E0.01208
G1 X61.676 Y54.634 E0.00351
G1 X61.329 Y54.546 E0.0137
G1 X60.992 Y54.46 E0.01331
G1 X60.92 Y54.453 E0.00277
G1 X60.526 Y54.41 E0.01517
G1 X60.198 Y54.374 E0.01263
G1 X60.186 Y54.374 E0.00046
G1 X59.756 Y54.39 E0.01647
G1 X59.405 Y54.403 E0.01344
G1 X59.376 Y54.408 E0.00113
G1 X58.987 Y54.478 E0.01513
G1 X58.619 Y54.544 E0.01431
G1 X58.232 Y54.671 E0.01559
G1 X57.863 Y54.793 E0.01487
G1 X57.526 Y54.959 E0.01438
G1 X57.147 Y55.146 E0.01617
G1 X56.845 Y55.355 E0.01406
G1 X56.49 Y55.6 E0.01651
G1 X56.226 Y55.843 E0.01373
G1 X55.933 Y56.112 E0.01522
G1 X55.905 Y56.137 E0.00144
G1 X55.685 Y56.407 E0.01333
G1 X55.437 Y56.711 E0.01501
G1 X55.4 Y56.756 E0.00223
G1 X55.218 Y57.058 E0.01349
G1 X55.025 Y57.378 E0.0143
G1 X54.989 Y57.438 E0.00268
G1 X54.871 Y57.714 E0.01149
G1 X54.699 Y58.118 E0.0168
G1 X54.676 Y58.172 E0.00225
G1 X54.604 Y58.446 E0.01084
G1 X54.501 Y58.831 E0.01525
G1 X54.471 Y58.942 E0.0044
G1 X54.457 Y59.063 E0.00466
G0 F1620 X54.437 Y59.239
G0 X54.394 Y59.6
G0 X54.375 Y59.753
G0 F4320 X56.611 Y62.907
G0 X57.558 Y63.739
G0 X61.598 Y65.704
G1 F1800 X61.575 Y65.712 E0.00093
G1 X61.179 Y65.807 E0.01353
G1 X60.779 Y65.872 E0.01339
G1 X60.766 Y65.874 E0.00046
G1 X60.383 Y65.911 E0.01269
G1 X59.964 Y65.924 E0.01382
G1 X59.921 Y65.922 E0.00148
G1 X59.518 Y65.902 E0.01326
G1 X59.119 Y65.859 E0.01325
G1 X59.088 Y65.854 E0.00111
G1 X58.747 Y65.791 E0.01148
G1 X58.313 Y65.677 E0.01482
G1 X58.271 Y65.663 E0.00151
G1 X57.947 Y65.555 E0.01118
G1 X57.544 Y65.39 E0.01442
G1 X57.491 Y65.364 E0.00199
G1 X57.193 Y65.217 E0.01098
G1 X56.816 Y64.995 E0.01449
G1 X56.757 Y64.955 E0.00237
G1 X56.5 Y64.779 E0.01023
G1 X56.167 Y64.517 E0.01409
G1 X56.089 Y64.446 E0.0035
G1 X55.871 Y64.248 E0.00972
G1 X55.582 Y63.945 E0.01395
G1 X55.504 Y63.852 E0.00401
G1 X55.305 Y63.612 E0.01028
G1 X55.089 Y63.313 E0.01231
G1 X55.006 Y63.178 E0.0052
G1 X54.843 Y62.914 E0.01014
G1 X54.667 Y62.582 E0.0125
G1 X54.606 Y62.441 E0.00504
G1 X54.5 Y62.201 E0.00857
G1 X54.371 Y61.842 E0.01266
G1 X54.317 Y61.653 E0.00642
G1 X54.245 Y61.4 E0.0086
G1 X54.168 Y61.038 E0.01235
G1 X54.138 Y60.815 E0.00737
G1 X54.104 Y60.576 E0.00798
G1 X54.08 Y60.223 E0.01211
G1 X54.09 Y59.747 E0.0157
G1 X54.094 Y59.565 E0.00593
G1 X54.13 Y59.204 E0.01209
G1 X54.184 Y58.892 E0.01042
G1 X54.209 Y58.754 E0.00461
G1 X54.304 Y58.367 E0.01331
G1 X54.397 Y58.081 E0.00996
